dist/img/asidePhone.svg

<svg width="50" height="50" viewBox="0 0 50 50" fill="none" xmlns="http://www.w3.org/2000/svg">
<path d="M13.625 10.4167C13.75 12.2708 14.0625 14.0833 14.5625 15.8125L12.0625 18.3125C11.2083 15.8125 10.6667 13.1667 10.4792 10.4167H13.625ZM34.1667 35.4583C35.9375 35.9583 37.75 36.2708 39.5833 36.3958V39.5C36.8333 39.3125 34.1875 38.7708 31.6667 37.9375L34.1667 35.4583ZM15.625 6.25H8.33333C7.1875 6.25 6.25 7.1875 6.25 8.33333C6.25 27.8958 22.1042 43.75 41.6667 43.75C42.8125 43.75 43.75 42.8125 43.75 41.6667V34.3958C43.75 33.25 42.8125 32.3125 41.6667 32.3125C39.0833 32.3125 36.5625 31.8958 34.2292 31.125C34.0208 31.0417 33.7917 31.0208 33.5833 31.0208C33.0417 31.0208 32.5208 31.2292 32.1042 31.625L27.5208 36.2083C21.625 33.1875 16.7917 28.375 13.7917 22.4792L18.375 17.8958C18.9583 17.3125 19.125 16.5 18.8958 15.7708C18.125 13.4375 17.7083 10.9375 17.7083 8.33333C17.7083 7.1875 16.7708 6.25 15.625 6.25Z" fill="white"/>
</svg>

<svg width="50" height="50" fill="none" xmlns="http://www.w3.org/2000/svg"><path d="M13.625 10.417c.125 1.854.438 3.666.938 5.396l-2.5 2.5a30.885 30.885 0 0 1-1.584-7.896h3.146Zm20.542 25.041c1.77.5 3.583.813 5.416.938V39.5a32.14 32.14 0 0 1-7.916-1.563l2.5-2.479ZM15.625 6.25H8.333A2.09 2.09 0 0 0 6.25 8.333c0 19.563 15.854 35.417 35.417 35.417a2.09 2.09 0 0 0 2.083-2.083v-7.271a2.09 2.09 0 0 0-2.083-2.084c-2.584 0-5.105-.416-7.438-1.187a1.75 1.75 0 0 0-.646-.104c-.541 0-1.062.208-1.479.604l-4.583 4.583c-5.896-3.02-10.73-7.833-13.73-13.729l4.584-4.583a2.09 2.09 0 0 0 .52-2.125 23.668 23.668 0 0 1-1.187-7.438 2.09 2.09 0 0 0-2.083-2.083Z" fill="#fff"/></svg>
